assets/Tiger face/Flat/tiger_face_flat.svg

<svg width="32" height="32" viewBox="0 0 32 32" fill="none" xmlns="http://www.w3.org/2000/svg">
<path d="M27.75 12.372L25.97 10.292C27.23 9.602 28.06 8.252 28 6.702C27.91 4.692 26.26 3.062 24.25 3.002C22.68 2.952 21.31 3.84201 20.65 5.142C19.7886 4.68962 18.8543 4.36012 17.8683 4.17494L16.0039 5.03516L14.1317 4.17494C13.1458 4.36012 12.2114 4.68962 11.35 5.142C10.7 3.84201 9.33003 2.952 7.75003 3.002C5.74003 3.072 4.09003 4.692 4.00003 6.702C3.94003 8.252 4.77003 9.602 6.02003 10.292L4.25003 12.372C3.34974 13.4275 2.71482 14.6402 2.35159 15.957L4.10918 18.4959L2.185 20.0812L4.42058 22.9928L2.3608 24.1189C3.0684 25.812 4.74038 27.002 6.69003 27.002H25.31C27.2595 27.002 28.9313 25.8123 29.639 24.1194L28.5 22.5L29.7812 20.1055L29 18.5L29.6617 15.9716C29.2982 14.6568 28.649 13.426 27.75 12.372Z" fill="#FF822D"/>
<path d="M8.2 7.74195L7.03 9.11195C6.14 8.76195 5.5 7.90195 5.5 6.88195C5.5 5.57195 6.57 4.50195 7.88 4.50195C8.86 4.50195 9.71 5.10195 10.06 5.96195C9.37 6.47195 8.74 7.07195 8.2 7.74195Z" fill="#FF6723"/>
<path d="M24.96 9.10195L23.79 7.73195C23.25 7.06195 22.62 6.46195 21.92 5.95195C22.28 5.10195 23.13 4.50195 24.11 4.50195C25.42 4.50195 26.49 5.57195 26.49 6.88195C26.49 7.89195 25.86 8.76195 24.96 9.10195Z" fill="#FF6723"/>
<path d="M16 30.002C12.13 30.002 9 26.872 9 23.002V21.002H23V23.002C23 26.872 19.87 30.002 16 30.002Z" fill="#E1D8EC"/>
<path d="M20 18.002H12C10.34 18.002 9 19.342 9 21.002C9 22.662 10.34 24.002 12 24.002H13.5C14.54 24.002 15.46 23.472 16 22.662C16.54 23.472 17.46 24.002 18.5 24.002H20C21.66 24.002 23 22.662 23 21.002C23 19.342 21.66 18.002 20 18.002Z" fill="#F3EEF8"/>
<path d="M8.08 17.5721L11.54 19.5721C11.78 19.7121 11.86 20.0121 11.72 20.2521C11.58 20.4921 11.28 20.5721 11.04 20.4321L7.58 18.4321C7.34 18.2921 7.26 17.9921 7.4 17.7521C7.54 17.5121 7.84 17.4321 8.08 17.5721Z" fill="#CDC4D6"/>
<path d="M11.03 21.5721L7.57001 23.5721C7.34001 23.7121 7.25001 24.0121 7.39001 24.2521C7.53001 24.4921 7.83001 24.5721 8.07001 24.4321L11.53 22.4321C11.77 22.2921 11.85 21.9921 11.71 21.7521C11.57 21.5121 11.27 21.4321 11.03 21.5721Z" fill="#CDC4D6"/>
<path d="M20.46 19.5721L23.92 17.5721C24.16 17.4321 24.46 17.5121 24.6 17.7521C24.74 17.9921 24.66 18.2921 24.42 18.4321L20.96 20.4321C20.72 20.5721 20.42 20.4921 20.28 20.2521C20.14 20.0121 20.22 19.7121 20.46 19.5721Z" fill="#CDC4D6"/>
<path d="M20.97 21.5721L24.43 23.5721C24.66 23.7121 24.75 24.0121 24.61 24.2521C24.47 24.4921 24.17 24.5721 23.93 24.4321L20.47 22.4321C20.23 22.2921 20.15 21.9921 20.29 21.7521C20.43 21.5121 20.73 21.4321 20.97 21.5721Z" fill="#CDC4D6"/>
<path d="M17.89 4.18195C17.28 4.06195 16.65 4.00195 16 4.00195C15.35 4.00195 14.72 4.06195 14.11 4.18195L15.28 5.43195C15.67 5.84195 16.32 5.84195 16.7 5.43195L17.89 4.18195Z" fill="#212121"/>
<path d="M18.85 7.50195H13.15C12.77 7.50195 12.61 7.97195 12.9 8.21195L15.6 10.372C15.84 10.562 16.17 10.562 16.4 10.372L19.1 8.21195C19.39 7.97195 19.23 7.50195 18.85 7.50195Z" fill="#212121"/>
<path d="M6.7 22.892L2.57 20.142H6.32C6.99 20.142 7.26 19.272 6.7 18.892L2.35 15.962C2.12 16.762 2 17.612 2 18.462V22.312C2 22.962 2.13 23.572 2.37 24.132H6.32C6.99 24.132 7.26 23.262 6.7 22.892Z" fill="#212121"/>
<path d="M29.63 24.132C29.87 23.572 30 22.962 30 22.312V18.462C30 17.612 29.88 16.772 29.66 15.962L25.3 18.882C24.74 19.252 25 20.132 25.68 20.132H29.43L25.3 22.882C24.74 23.252 25 24.132 25.68 24.132H29.63Z" fill="#212121"/>
<path d="M12 14C11.4477 14 11 14.4477 11 15V16C11 16.5523 11.4477 17 12 17C12.5523 17 13 16.5523 13 16V15C13 14.4477 12.5523 14 12 14Z" fill="#212121"/>
<path d="M20 14C19.4477 14 19 14.4477 19 15V16C19 16.5523 19.4477 17 20 17C20.5523 17 21 16.5523 21 16V15C21 14.4477 20.5523 14 20 14Z" fill="#212121"/>
<path d="M13.88 19.812L15.26 21.192C15.67 21.602 16.34 21.602 16.76 21.192L18.14 19.812C18.81 19.142 18.33 18.002 17.39 18.002H14.64C13.68 18.002 13.21 19.142 13.88 19.812Z" fill="#212121"/>
</svg>

<svg xmlns="http://www.w3.org/2000/svg" width="32" height="32" fill="none"><path fill="#FF822D" d="m27.75 12.372-1.78-2.08A3.9 3.9 0 0 0 28 6.702c-.09-2.01-1.74-3.64-3.75-3.7a3.9 3.9 0 0 0-3.6 2.14 9.911 9.911 0 0 0-2.782-.967l-1.864.86-1.872-.86a9.912 9.912 0 0 0-2.782.967 3.88 3.88 0 0 0-3.6-2.14c-2.01.07-3.66 1.69-3.75 3.7a3.91 3.91 0 0 0 2.02 3.59l-1.77 2.08a9.302 9.302 0 0 0-1.898 3.585l1.757 2.539-1.924 1.585 2.236 2.912-2.06 1.126a4.692 4.692 0 0 0 4.329 2.883h18.62c1.95 0 3.621-1.19 4.329-2.883L28.5 22.5l1.281-2.395L29 18.5l.662-2.528a9.414 9.414 0 0 0-1.912-3.6Z"/><path fill="#FF6723" d="m8.2 7.742-1.17 1.37a2.399 2.399 0 0 1-1.53-2.23c0-1.31 1.07-2.38 2.38-2.38.98 0 1.83.6 2.18 1.46-.69.51-1.32 1.11-1.86 1.78ZM24.96 9.102l-1.17-1.37a9.864 9.864 0 0 0-1.87-1.78c.36-.85 1.21-1.45 2.19-1.45 1.31 0 2.38 1.07 2.38 2.38 0 1.01-.63 1.88-1.53 2.22Z"/><path fill="#E1D8EC" d="M16 30.002c-3.87 0-7-3.13-7-7v-2h14v2c0 3.87-3.13 7-7 7Z"/><path fill="#F3EEF8" d="M20 18.002h-8c-1.66 0-3 1.34-3 3s1.34 3 3 3h1.5a3 3 0 0 0 2.5-1.34 3 3 0 0 0 2.5 1.34H20c1.66 0 3-1.34 3-3s-1.34-3-3-3Z"/><path fill="#CDC4D6" d="m8.08 17.572 3.46 2c.24.14.32.44.18.68-.14.24-.44.32-.68.18l-3.46-2a.493.493 0 0 1-.18-.68c.14-.24.44-.32.68-.18ZM11.03 21.572l-3.46 2c-.23.14-.32.44-.18.68.14.24.44.32.68.18l3.46-2c.24-.14.32-.44.18-.68a.493.493 0 0 0-.68-.18ZM20.46 19.572l3.46-2c.24-.14.54-.06.68.18s.06.54-.18.68l-3.46 2c-.24.14-.54.06-.68-.18a.493.493 0 0 1 .18-.68ZM20.97 21.572l3.46 2c.23.14.32.44.18.68-.14.24-.44.32-.68.18l-3.46-2a.493.493 0 0 1-.18-.68c.14-.24.44-.32.68-.18Z"/><path fill="#212121" d="M17.89 4.182a9.77 9.77 0 0 0-1.89-.18c-.65 0-1.28.06-1.89.18l1.17 1.25c.39.41 1.04.41 1.42 0l1.19-1.25ZM18.85 7.502h-5.7c-.38 0-.54.47-.25.71l2.7 2.16c.24.19.57.19.8 0l2.7-2.16c.29-.24.13-.71-.25-.71ZM6.7 22.892l-4.13-2.75h3.75c.67 0 .94-.87.38-1.25l-4.35-2.93c-.23.8-.35 1.65-.35 2.5v3.85c0 .65.13 1.26.37 1.82h3.95c.67 0 .94-.87.38-1.24ZM29.63 24.132c.24-.56.37-1.17.37-1.82v-3.85c0-.85-.12-1.69-.34-2.5l-4.36 2.92c-.56.37-.3 1.25.38 1.25h3.75l-4.13 2.75c-.56.37-.3 1.25.38 1.25h3.95ZM12 14a1 1 0 0 0-1 1v1a1 1 0 1 0 2 0v-1a1 1 0 0 0-1-1ZM20 14a1 1 0 0 0-1 1v1a1 1 0 1 0 2 0v-1a1 1 0 0 0-1-1ZM13.88 19.812l1.38 1.38c.41.41 1.08.41 1.5 0l1.38-1.38c.67-.67.19-1.81-.75-1.81h-2.75c-.96 0-1.43 1.14-.76 1.81Z"/></svg>
